X:59
T: DER ALTE BARBAROSSA DER KAISER FRIEDERICH
N: B0080
O: Europa, Mitteleuropa, Deutschland
R: Helden -, Ehren -, Gedaechtnis -, Kriegs - Lied
M: 4/4
L: 1/8
K: G
B,2 | E3GF2E2 | D4G2
G2 | A2c2B2A2 | G4z2
B2 | B3cd2d2 | d3cc2
B2 | A2G2F2A2 | G4z2

@@@ Tune index: 1862
